X:1
T: Sir Charles Douglas's Strathspey
C:
R:Strathspey
Q: 128
K:D
M:4/4
L:1/16
|:B2|AD3 F3D A3D D3B|AD3 F3D FGA2 d4|AD3 F3D AD3 A3F|GB3 F3d EFE2 B2B2|
AD3 F3D A3D D3B|AD3 F3D FGA2 d4|AD3 F3D AD3 A3F|GB3 F3d EFE2 B2B2|
Ad3 d3f e3d c3B|Ad3 d3f e3f g3e|Ad3 d3f e3c d3A|Bd3 F3d EFE2 B3B|
Ad3 d3f e3d c3B|Ad3 d3f e3f g2fe|fa3 e3f df3 B3d|Bd3 F3d EFE2 B2:|
